assets/home-tab/Asset/Electricity.svg

<svg width="26" height="26" viewBox="0 0 26 26" fill="none" xmlns="http://www.w3.org/2000/svg">
<path d="M16.2496 19.5C17.1486 19.5001 17.8746 20.2259 17.8746 21.125C17.8746 22.4141 17.3656 23.6603 16.4449 24.5703C15.5349 25.491 14.2886 25.9999 12.9996 26C11.7107 26 10.476 25.48 9.55523 24.5703C8.6344 23.6603 8.12456 22.4142 8.12456 21.125C8.12457 20.2259 8.85048 19.5001 9.74956 19.5H16.2496ZM12.9996 0C15.0903 4.09476e-05 17.138 0.672173 18.7955 1.91797C20.4745 3.17462 21.7093 4.92954 22.316 6.93359C22.9225 8.93756 22.8687 11.0822 22.1539 13.0537C21.5905 14.6028 20.6476 15.9899 19.4127 17.0732C18.7736 17.6364 17.9285 17.8642 17.0728 17.8643H14.0835V12.9033C14.0836 12.6186 14.1967 12.3459 14.398 12.1445L16.6988 9.84375C17.1241 9.41834 17.1237 8.72839 16.6988 8.30273C16.2768 7.88075 15.5936 7.87614 15.1666 8.29297L13.7496 9.6748C13.3324 10.0818 12.6667 10.0819 12.2496 9.6748L10.8335 8.29297C10.4065 7.87612 9.72331 7.88074 9.30132 8.30273C8.87605 8.72838 8.87584 9.41823 9.30132 9.84375L11.6021 12.1445C11.8032 12.3459 11.9165 12.6187 11.9166 12.9033V17.8643H8.90484C8.05993 17.8643 7.20414 17.6364 6.56499 17.0732C5.33001 16.0008 4.38712 14.6137 3.82378 13.0537C3.10896 11.0822 3.05511 8.93756 3.66167 6.93359C4.26832 4.92954 5.50314 3.17452 7.18218 1.92871C8.86128 0.672139 10.9088 3.82534e-05 12.9996 0Z" fill="#0066B4"/>
</svg>

<svg xmlns="http://www.w3.org/2000/svg" width="26" height="26" fill="none" viewBox="0 0 26 26"><path fill="#0066b4" d="M16.25 19.5c.899 0 1.625.726 1.625 1.625 0 1.29-.51 2.535-1.43 3.445A4.85 4.85 0 0 1 13 26a4.9 4.9 0 0 1-3.445-1.43 4.85 4.85 0 0 1-1.43-3.445c0-.9.725-1.625 1.625-1.625zM13 0a9.67 9.67 0 0 1 5.796 1.918 9.82 9.82 0 0 1 3.52 5.016 9.7 9.7 0 0 1-.162 6.12 9.8 9.8 0 0 1-2.741 4.02c-.64.562-1.485.79-2.34.79h-2.99v-4.96c0-.285.114-.558.315-.76l2.3-2.3a1.09 1.09 0 0 0-1.531-1.551L13.75 9.675a1.074 1.074 0 0 1-1.5 0l-1.416-1.382A1.09 1.09 0 0 0 9.3 9.843l2.301 2.302c.201.2.314.474.315.758v4.961H8.905c-.845 0-1.7-.228-2.34-.79a9.7 9.7 0 0 1-2.741-4.02 9.7 9.7 0 0 1-.162-6.12 9.75 9.75 0 0 1 3.52-5.005A9.7 9.7 0 0 1 13 0"/></svg>
